source/assets/images/flags/Honduras.svg

<svg viewBox="0 0 4167 2084" xmlns="http://www.w3.org/2000/svg" fill-rule="evenodd" clip-rule="evenodd" stroke-linejoin="round" stroke-miterlimit="1.414"><path fill="#2672B9" fill-rule="nonzero" d="M0 0h4166.67v2083.335H0z"/><path fill="#fff" fill-rule="nonzero" d="M0 694.442h4166.67v694.447H0z"/><path d="M2015.302 1135.3l25.99-79.97-68.03-49.43h84.09l25.98-79.973 25.99 79.974h84.09l-68.03 49.43 25.98 79.97-68.03-49.42-68.03 49.42zM2594.012 950.12l25.98-79.977-68.03-49.427h84.09l25.99-79.974 25.98 79.974h84.09l-68.03 49.427 25.99 79.976-68.03-49.426-68.03 49.425zM2594.012 1297.34l25.98-79.98-68.03-49.42h84.09l25.99-79.98 25.98 79.98h84.09l-68.03 49.42 25.99 79.98-68.03-49.43-68.03 49.43zM1436.6 950.12l25.99-79.977-68.04-49.427h84.09l25.99-79.974 25.99 79.974h84.09l-68.04 49.427 25.99 79.976-68.03-49.426-68.03 49.425zM1436.6 1297.34l25.99-79.98-68.04-49.42h84.09l25.99-79.98 25.99 79.98h84.09l-68.04 49.42 25.99 79.98-68.03-49.43-68.03 49.43z" fill="#2672B9"/></svg>

<?xml version="1.0" standalone="no"?>
<!DOCTYPE svg PUBLIC "-//W3C//DTD SVG 1.1//EN" "http://www.w3.org/Graphics/SVG/1.1/DTD/svg11.dtd">
<svg width="100%" height="100%" viewBox="0 0 4167 2084" version="1.1" xmlns="http://www.w3.org/2000/svg" xmlns:xlink="http://www.w3.org/1999/xlink" xml:space="preserve" style="fill-rule:evenodd;clip-rule:evenodd;stroke-linejoin:round;stroke-miterlimit:1.41421;">
    <g id="Layer 1" transform="matrix(4.16667,0,0,4.16667,0,0)">
        <rect x="0" y="0" width="1000" height="500" style="fill:rgb(38,114,185);fill-rule:nonzero;"/>
        <rect x="0" y="166.666" width="1000" height="166.667" style="fill:white;fill-rule:nonzero;"/>
        <g transform="matrix(0.24,0,0,0.24,0,0)">
            <path d="M2015.3,1135.3L2041.29,1055.33L1973.26,1005.9L2057.35,1005.9L2083.33,925.926L2109.32,1005.9L2193.41,1005.9L2125.38,1055.33L2151.36,1135.3L2083.33,1085.88L2015.3,1135.3Z" style="fill:rgb(38,114,185);"/>
        </g>
        <g transform="matrix(0.24,0,0,0.24,0,0)">
            <path d="M2594.01,950.118L2619.99,870.142L2551.96,820.715L2636.05,820.715L2662.04,740.741L2688.02,820.715L2772.11,820.715L2704.08,870.142L2730.07,950.118L2662.04,900.693L2594.01,950.118Z" style="fill:rgb(38,114,185);"/>
        </g>
        <g transform="matrix(0.24,0,0,0.24,0,0)">
            <path d="M2594.01,1297.34L2619.99,1217.36L2551.96,1167.94L2636.05,1167.94L2662.04,1087.96L2688.02,1167.94L2772.11,1167.94L2704.08,1217.36L2730.07,1297.34L2662.04,1247.91L2594.01,1297.34Z" style="fill:rgb(38,114,185);"/>
        </g>
        <g transform="matrix(0.24,0,0,0.24,0,0)">
            <path d="M1436.6,950.118L1462.59,870.142L1394.55,820.715L1478.64,820.715L1504.63,740.741L1530.62,820.715L1614.71,820.715L1546.67,870.142L1572.66,950.118L1504.63,900.693L1436.6,950.118Z" style="fill:rgb(38,114,185);"/>
        </g>
        <g transform="matrix(0.24,0,0,0.24,0,0)">
            <path d="M1436.6,1297.34L1462.59,1217.36L1394.55,1167.94L1478.64,1167.94L1504.63,1087.96L1530.62,1167.94L1614.71,1167.94L1546.67,1217.36L1572.66,1297.34L1504.63,1247.91L1436.6,1297.34Z" style="fill:rgb(38,114,185);"/>
        </g>
    </g>
</svg>
